X: 698
T: Zhangsheng xi yuanyang
%%abc-version 2.0
%%abcx-abcm2ps-target-version 5.9.1 (29 Sep 2008)
%%abc-creator hum2abc beta
%%abcx-conversion-date 2013/10/02 07:52:30
%%abc-edited-by Helmut Schaffrath
%%humdrum-veritas 595148384
%%humdrum-veritas-data 19885273
%%continueall 1
%%barnumbers 0
L: 1/16
M: 2/4
K: Eb
B2 B c e2 G2 [I:setbarnb 1]| 
B2 B c G2 F2 | 
B2 B c e2 G2 | 
B2 B c G2 F2 | 
B GB4e e | 
c2 B2 G2 F2 | 
B2 F2 B2 G F | 
E2> C2 E2 F2 | 
G F E C2< F2 G | 
B2> G2 B2 e G | 
F2 G2 F G F E | 
F EC4E2 | 
F2 F G E2 C2 | 
B,8 |]  



